symbols/web/gpp_bad/materialsymbolsrounded/gpp_bad_wght700grad200_48px.svg

<svg xmlns="http://www.w3.org/2000/svg" height="48" width="48"><path d="m23.95 26.2 3.35 3.3q.5.55 1.3.55t1.35-.55q.45-.45.45-1.25t-.45-1.3l-3.3-3.3 3.3-3.35q.45-.45.45-1.225 0-.775-.45-1.275-.5-.45-1.275-.45-.775 0-1.225.45l-3.35 3.35-3.35-3.35q-.55-.5-1.35-.5t-1.25.5q-.55.55-.55 1.325 0 .775.5 1.225l3.3 3.35-3.3 3.35q-.5.5-.5 1.25t.5 1.2q.45.5 1.225.5.775 0 1.275-.5ZM24 44.9q-.35 0-.6-.025t-.5-.175q-7.05-2.15-11.525-8.65Q6.9 29.55 6.9 21.85V12.4q0-1.4.8-2.625T9.9 8.05l12.55-4.7Q23.2 3.1 24 3.1t1.6.25l12.55 4.7q1.35.5 2.175 1.7.825 1.2.825 2.65v9.45q0 7.7-4.5 14.2-4.5 6.5-11.55 8.65.1-.05-1.1.2Zm0-4.5q5.45-2.15 9-7.2 3.55-5.05 3.55-11.4v-9.4L24 7.7l-12.55 4.7v9.4q0 6.35 3.55 11.4 3.55 5.05 9 7.2ZM24 24Z"/></svg>

<svg xmlns="http://www.w3.org/2000/svg" height="48" width="48"><path d="M23.95 26.2 27.3 29.5Q27.8 30.05 28.6 30.05Q29.4 30.05 29.95 29.5Q30.4 29.05 30.4 28.25Q30.4 27.45 29.95 26.95L26.65 23.65L29.95 20.3Q30.4 19.85 30.4 19.075Q30.4 18.3 29.95 17.8Q29.45 17.35 28.675 17.35Q27.9 17.35 27.45 17.8L24.1 21.15L20.75 17.8Q20.2 17.3 19.4 17.3Q18.6 17.3 18.15 17.8Q17.6 18.35 17.6 19.125Q17.6 19.9 18.1 20.35L21.4 23.7L18.1 27.05Q17.6 27.55 17.6 28.3Q17.6 29.05 18.1 29.5Q18.55 30 19.325 30Q20.1 30 20.6 29.5ZM24 44.9Q23.65 44.9 23.4 44.875Q23.15 44.85 22.9 44.7Q15.85 42.55 11.375 36.05Q6.9 29.55 6.9 21.85V12.4Q6.9 11 7.7 9.775Q8.5 8.55 9.9 8.05L22.45 3.35Q23.2 3.1 24 3.1Q24.8 3.1 25.6 3.35L38.15 8.05Q39.5 8.55 40.325 9.75Q41.15 10.95 41.15 12.4V21.85Q41.15 29.55 36.65 36.05Q32.15 42.55 25.1 44.7Q25.2 44.65 24 44.9ZM24 40.4Q29.45 38.25 33 33.2Q36.55 28.15 36.55 21.8V12.4Q36.55 12.4 36.55 12.4Q36.55 12.4 36.55 12.4L24 7.7Q24 7.7 24 7.7Q24 7.7 24 7.7L11.45 12.4Q11.45 12.4 11.45 12.4Q11.45 12.4 11.45 12.4V21.8Q11.45 28.15 15 33.2Q18.55 38.25 24 40.4ZM24 24Q24 24 24 24Q24 24 24 24Q24 24 24 24Q24 24 24 24Q24 24 24 24Q24 24 24 24Q24 24 24 24Q24 24 24 24Q24 24 24 24Q24 24 24 24Z"/></svg>
